app/img/_src/main/services/services-1.svg

<svg width="90" height="90" viewBox="0 0 90 90" fill="none" xmlns="http://www.w3.org/2000/svg">
<path d="M58.3793 21.2414C60.2376 20.0892 61.8421 19.0941 64.9983 18.2338C67.635 17.5149 70.0682 17.3038 72.2461 17.5717C69.1202 15.7026 65.0146 15.3486 60.2443 16.6492C57.0885 17.5094 55.4836 18.5045 53.6252 19.6568C52.4452 20.4152 51.2214 21.1032 49.9602 21.7173C51.8235 22.5116 53.4857 22.9871 55.0028 23.1606C56.1611 22.5803 57.2881 21.9397 58.3793 21.2414Z" fill="#D4E1F4"/>
<path d="M62.1615 68.9471C61.5111 61.2693 59.5308 55.3175 56.2766 51.257C55.8371 50.7112 55.28 50.2716 54.6469 49.9712C54.0138 49.6707 53.3211 49.5171 52.6203 49.5218C52.2454 49.5221 51.8717 49.5663 51.5071 49.6535C51.5124 49.66 51.518 49.666 51.5231 49.6725C54.7773 53.733 56.7573 59.6846 57.4081 67.3624C57.7056 70.7835 57.709 74.2239 57.4181 77.6456C57.4154 77.6718 57.4116 77.6983 57.4066 77.7238C57.3558 77.973 57.3732 78.2313 57.4572 78.4714C57.5412 78.7114 57.6885 78.9243 57.8836 79.0874C58.0788 79.2506 58.3144 79.3579 58.5655 79.398C58.8166 79.4381 59.074 79.4096 59.3102 79.3153C59.5227 79.2584 59.7232 79.1634 59.9019 79.035C60.8832 78 61.7136 76.8319 62.3688 75.5651C62.4149 73.357 62.3457 71.1479 62.1615 68.9471Z" fill="#D4E1F4"/>
<path d="M38.2148 77.6461C38.2129 77.6286 38.2069 77.5693 38.1981 77.4746C35.0763 71.8578 34.3726 63.6151 34.8771 57.0186C34.9205 56.4497 34.965 55.9212 35.0065 55.4276C35.2733 52.2549 35.4345 50.3399 34.3612 48.6062C33.3285 46.9377 31.2231 45.6257 27.1816 43.486C24.9534 42.3066 23.2522 39.9397 22.3908 36.822C21.5452 33.6475 21.6177 30.2981 22.6 27.1632C23.5828 24.0891 25.39 21.6139 27.8265 20.0055C30.6722 18.1273 34.2685 17.4606 38.5163 18.024C38.6662 18.0438 38.8181 18.0686 38.9707 18.0955C37.1985 17.2964 35.3907 16.6553 33.7623 16.4393C29.5145 15.8768 25.9182 16.5426 23.0725 18.4209C20.636 20.0293 18.8288 22.5044 17.846 25.5785C16.8637 28.7135 16.7911 32.0628 17.6368 35.2373C18.4982 38.355 20.1994 40.7217 22.4276 41.9014C26.4691 44.041 28.5745 45.353 29.6072 47.0215C30.6805 48.7553 30.5193 50.6702 30.2525 53.8429C30.211 54.3365 30.1665 54.8651 30.1231 55.4339C29.5131 63.4117 30.6663 73.8016 35.7323 79.036C35.9108 79.1635 36.1107 79.258 36.3225 79.315C36.6616 79.441 37.0356 79.4354 37.3708 79.2993C37.7059 79.1632 37.9779 78.9065 38.1331 78.5797C38.2496 78.3102 38.2821 78.0119 38.2266 77.7237C38.2206 77.698 38.2169 77.6722 38.2148 77.6461Z" fill="#D4E1F4"/>
<path d="M21.686 43.704C25.3171 45.6263 27.3041 46.834 28.0874 48.0985C28.8102 49.2664 28.6782 50.8363 28.4389 53.6861C28.3971 54.1835 28.3523 54.7163 28.3085 55.2896C27.9543 59.9198 28.2095 64.7 29.0268 68.7497C30.0463 73.8039 31.8769 77.7231 34.4665 80.3989C34.9851 80.9294 35.6599 81.2799 36.3922 81.3993C37.1244 81.5186 37.8756 81.4005 38.5358 81.0621C39.1961 80.7238 39.7307 80.183 40.0615 79.519C40.3923 78.8549 40.5018 78.1024 40.3741 77.3716C40.2875 76.4728 38.7865 59.6431 45.9504 50.9228C46.2063 50.62 46.5254 50.377 46.8854 50.211C47.2454 50.0449 47.6374 49.9599 48.0338 49.9619C48.4302 49.9639 48.8214 50.0528 49.1797 50.2224C49.538 50.392 49.8547 50.6382 50.1075 50.9435C57.1301 59.7062 55.6527 76.471 55.5669 77.3723C55.4772 77.8649 55.4977 78.3714 55.627 78.8552C55.7563 79.339 55.9911 79.7882 56.3146 80.1705C56.6381 80.5528 57.0422 80.8587 57.498 81.0663C57.9537 81.2738 58.4498 81.3779 58.9505 81.3709C59.3409 81.3709 59.7285 81.3059 60.0975 81.1786C60.6109 81.0292 61.0825 80.7622 61.4747 80.3989C64.0642 77.7231 65.8944 73.8039 66.9145 68.7497C67.7317 64.6998 67.9867 59.9196 67.6327 55.2896C67.5891 54.719 67.5448 54.1885 67.503 53.6933C67.2634 50.8423 67.1314 49.2717 67.8545 48.1034C68.6366 46.8401 70.624 45.6302 74.2561 43.7022C77.1862 42.1469 79.3647 38.8171 80.2327 34.5669C81.0682 30.4763 80.6105 26.0454 78.9767 22.4104C78.9207 22.2829 78.84 22.1677 78.7393 22.0716C78.6386 21.9754 78.5198 21.9002 78.3898 21.8502C78.2598 21.8002 78.1213 21.7764 77.9821 21.7802C77.8428 21.7841 77.7058 21.8155 77.5788 21.8725C77.4517 21.9296 77.3373 22.0113 77.242 22.1129C77.1467 22.2144 77.0725 22.3338 77.0236 22.4642C76.9747 22.5946 76.9521 22.7334 76.9571 22.8726C76.9621 23.0117 76.9947 23.1485 77.0528 23.275C78.5092 26.5158 78.9151 30.4777 78.166 34.1447C77.4244 37.7758 75.6387 40.5802 73.267 41.839C65.0839 46.1825 64.8408 47.2013 65.401 53.8692C65.4421 54.3597 65.4862 54.8851 65.5295 55.4499C66.4557 67.5612 63.2593 75.5213 59.9641 78.9262C59.7954 79.0423 59.6085 79.1294 59.4111 79.1837C59.0977 79.3007 58.7519 79.2961 58.4417 79.171C58.1315 79.0458 57.8794 78.809 57.735 78.5073C57.6271 78.2575 57.597 77.9811 57.6485 77.714C57.654 77.6853 57.6582 77.6563 57.6612 77.6273C57.9522 74.2047 57.9489 70.7635 57.6515 67.3415C57 59.6553 55.0148 53.6942 51.7535 49.624C51.3044 49.0736 50.7392 48.6294 50.0984 48.3231C49.4575 48.0168 48.7569 47.8559 48.0466 47.852C47.3363 47.8481 46.634 48.0013 45.9898 48.3007C45.3457 48.6 44.7757 49.038 44.3206 49.5834C40.9938 53.6328 38.9674 59.5948 38.2978 67.304C37.9924 70.7383 37.9865 74.1927 38.2802 77.628C38.2834 77.6568 38.2876 77.6855 38.2929 77.714C38.3444 77.981 38.3143 78.2574 38.2064 78.5071C38.062 78.8089 37.81 79.0457 37.4998 79.1709C37.1896 79.2961 36.8437 79.3007 36.5303 79.1837C36.3357 79.1285 36.1508 79.0434 35.9824 78.9313C32.6823 75.5211 29.4859 67.5621 30.4119 55.4499C30.4553 54.8825 30.4998 54.3548 30.5411 53.8624C31.1024 47.191 30.8591 46.1721 22.6735 41.839C20.4752 40.6751 18.7951 38.3355 17.943 35.251C17.1041 32.1015 17.1762 28.7786 18.1508 25.6685C19.1777 22.4549 22.7711 15.1383 33.9258 16.6177C37.5711 17.1013 42.1365 19.7376 45.1582 21.4823C46.0668 22.0071 46.8517 22.4603 47.433 22.7495C50.2397 24.1452 54.4523 25.907 58.6102 25.0958C58.7462 25.0692 58.8755 25.0162 58.991 24.9396C59.1064 24.8631 59.2056 24.7646 59.283 24.6497C59.3603 24.5348 59.4143 24.4058 59.4418 24.27C59.4693 24.1342 59.4698 23.9944 59.4432 23.8585C59.4167 23.7225 59.3636 23.5931 59.2871 23.4777C59.2105 23.3623 59.112 23.2631 58.9971 23.1857C58.8822 23.1083 58.7532 23.0544 58.6174 23.0269C58.4817 22.9994 58.3419 22.9989 58.2059 23.0254C55.9821 23.4594 53.456 23.0597 50.3698 21.7748C51.5564 21.1846 52.7101 20.5304 53.8258 19.8151C55.6741 18.6691 57.2711 17.6792 60.4062 16.8244C64.7467 15.6414 68.4745 15.7947 71.4867 17.28C71.7373 17.4019 72.026 17.4196 72.2897 17.3293C72.5534 17.239 72.7706 17.048 72.8938 16.7981C73.0171 16.5481 73.0365 16.2595 72.9476 15.9954C72.8588 15.7312 72.669 15.5129 72.4198 15.3883C68.9323 13.6681 64.7038 13.4665 59.8514 14.7894C56.4194 15.7249 54.6198 16.8409 52.7147 18.0224C51.2353 18.9846 49.6751 19.8164 48.0516 20.5083C47.9896 20.5346 47.9292 20.5643 47.8705 20.5972C47.4071 20.345 46.8417 20.0187 46.2131 19.6557C43.0478 17.8276 38.2641 15.0652 34.2039 14.5266C25.3687 13.3547 18.617 17.2804 16.1408 25.0271C13.7679 32.4507 16.2555 40.8291 21.686 43.704Z" fill="url(#paint0_linear)"/>
<path d="M8.05396 59.4609C8.22872 59.461 8.40077 59.4177 8.55464 59.3349C8.70852 59.252 8.83939 59.1322 8.93551 58.9863C9.54877 58.0498 10.4262 57.3165 11.4567 56.8793C12.4872 56.4421 13.6243 56.3207 14.7238 56.5304C14.9634 56.5757 15.2112 56.5365 15.4252 56.4197C15.6391 56.3028 15.806 56.1154 15.8973 55.8894C15.9887 55.6633 15.9989 55.4126 15.9263 55.1799C15.8537 54.9472 15.7027 54.7468 15.499 54.6128C14.5624 53.9996 13.829 53.122 13.3917 52.0914C12.9545 51.0608 12.8331 49.9235 13.043 48.8238C13.0883 48.5842 13.0492 48.3363 12.9324 48.1223C12.8155 47.9082 12.628 47.7413 12.4019 47.6499C12.1758 47.5585 11.9251 47.5483 11.6923 47.621C11.4595 47.6937 11.2591 47.8448 11.1252 48.0486C10.5119 48.985 9.63439 49.7182 8.60394 50.1554C7.57349 50.5926 6.43645 50.714 5.33691 50.5043C5.09735 50.4591 4.84952 50.4982 4.63557 50.6151C4.42162 50.732 4.25476 50.9194 4.16339 51.1454C4.07202 51.3714 4.06178 51.6221 4.1344 51.8548C4.20702 52.0876 4.35802 52.288 4.56172 52.4219C5.49815 53.0352 6.23142 53.9127 6.6686 54.9431C7.10577 55.9736 7.22716 57.1107 7.01738 58.2102C6.98856 58.3626 6.9937 58.5195 7.03244 58.6696C7.07118 58.8198 7.14256 58.9596 7.24149 59.079C7.34043 59.1985 7.46449 59.2946 7.60483 59.3606C7.74518 59.4266 7.89835 59.4609 8.05344 59.4609H8.05396ZM10.9522 51.2373C11.1563 52.3939 11.6207 53.4889 12.3103 54.4395C11.1542 54.6438 10.0595 55.1082 9.10918 55.7976C8.90493 54.6413 8.44047 53.5466 7.75092 52.5963C8.90723 52.3918 10.0019 51.9271 10.9522 51.2373Z" fill="#8888D3"/>
<path d="M85.0653 17.4375C83.099 17.0478 81.2926 16.0831 79.8752 14.6657C78.4578 13.2483 77.4931 11.442 77.1034 9.47566C77.0555 9.23667 76.9263 9.02164 76.7378 8.86715C76.5493 8.71266 76.3131 8.62823 76.0693 8.62823C75.8256 8.62823 75.5894 8.71266 75.4008 8.86715C75.2123 9.02164 75.0831 9.23667 75.0352 9.47566C74.6455 11.442 73.6809 13.2483 72.2634 14.6657C70.846 16.0831 69.0397 17.0478 67.0734 17.4375C66.8344 17.4854 66.6194 17.6146 66.4649 17.8031C66.3104 17.9917 66.226 18.2279 66.226 18.4716C66.226 18.7154 66.3104 18.9516 66.4649 19.1401C66.6194 19.3286 66.8344 19.4578 67.0734 19.5057C69.0397 19.8954 70.846 20.8601 72.2635 22.2775C73.6809 23.6949 74.6456 25.5013 75.0352 27.4676C75.0831 27.7066 75.2123 27.9216 75.4008 28.0761C75.5894 28.2306 75.8256 28.315 76.0693 28.315C76.3131 28.315 76.5493 28.2306 76.7378 28.0761C76.9263 27.9216 77.0555 27.7066 77.1034 27.4676C77.4931 25.5013 78.4578 23.6949 79.8752 22.2775C81.2926 20.8601 83.099 19.8954 85.0653 19.5057C85.3043 19.4578 85.5193 19.3286 85.6738 19.1401C85.8283 18.9516 85.9127 18.7154 85.9127 18.4716C85.9127 18.2279 85.8283 17.9917 85.6738 17.8031C85.5193 17.6146 85.3043 17.4854 85.0653 17.4375ZM76.0693 24.0117C74.8815 21.6066 72.9345 19.6596 70.5294 18.4718C72.9345 17.284 74.8814 15.3371 76.0693 12.932C77.2572 15.3372 79.2041 17.2842 81.6092 18.4721C79.2042 19.6599 77.2572 21.6067 76.0693 24.0117Z" fill="#8888D3"/>
<path d="M24.6403 67.5151C24.6403 67.2713 24.5558 67.0351 24.4013 66.8465C24.2467 66.658 24.0316 66.5288 23.7925 66.481C22.155 66.1564 20.6507 65.353 19.4703 64.1726C18.2899 62.9922 17.4866 61.4879 17.1621 59.8504C17.1142 59.6114 16.985 59.3963 16.7964 59.2419C16.6079 59.0874 16.3717 59.0029 16.1279 59.0029C15.8842 59.0029 15.648 59.0874 15.4595 59.2419C15.2709 59.3963 15.1417 59.6114 15.0938 59.8504C14.7692 61.4878 13.9658 62.992 12.7854 64.1723C11.605 65.3526 10.1008 66.156 8.46336 66.4805C8.22437 66.5284 8.00934 66.6576 7.85485 66.8461C7.70036 67.0346 7.61594 67.2708 7.61594 67.5146C7.61594 67.7583 7.70036 67.9946 7.85485 68.1831C8.00934 68.3716 8.22437 68.5008 8.46336 68.5487C10.1009 68.8732 11.6052 69.6766 12.7856 70.857C13.966 72.0374 14.7693 73.5417 15.0938 75.1792C15.1417 75.4182 15.2709 75.6332 15.4595 75.7877C15.648 75.9422 15.8842 76.0266 16.1279 76.0266C16.3717 76.0266 16.6079 75.9422 16.7964 75.7877C16.985 75.6332 17.1142 75.4182 17.1621 75.1792C17.4866 73.5417 18.2899 72.0374 19.4703 70.857C20.6507 69.6766 22.155 68.8732 23.7925 68.5487C24.0315 68.5009 24.2465 68.3718 24.4011 68.1834C24.5557 67.995 24.6402 67.7588 24.6403 67.5151ZM16.1279 71.8655C15.1439 70.0141 13.6288 68.4991 11.7774 67.5151C13.6287 66.5308 15.1437 65.0158 16.1279 63.1645C17.1122 65.0158 18.6272 66.5308 20.4785 67.5151C18.6271 68.4991 17.112 70.0141 16.1279 71.8655Z" fill="#8888D3"/>
<defs>
<linearGradient id="paint0_linear" x1="47.9417" y1="13.9279" x2="47.9417" y2="81.4445" gradientUnits="userSpaceOnUse">
<stop stop-color="#8888D3"/>
<stop offset="1" stop-color="#5E60A3"/>
</linearGradient>
</defs>
</svg>

<svg width="90" height="90" fill="none" xmlns="http://www.w3.org/2000/svg"><path d="M58.38 21.241c1.858-1.152 3.462-2.147 6.618-3.007 2.637-.72 5.07-.93 7.248-.662-3.126-1.87-7.231-2.223-12.002-.923-3.155.86-4.76 1.855-6.619 3.008a35.62 35.62 0 01-3.665 2.06c1.864.795 3.526 1.27 5.043 1.444a37.066 37.066 0 003.376-1.92zm3.781 47.706c-.65-7.678-2.63-13.63-5.884-17.69a4.654 4.654 0 00-3.657-1.735c-.375 0-.748.044-1.113.132l.016.018c3.254 4.061 5.234 10.013 5.885 17.69.298 3.422.301 6.862.01 10.284a.876.876 0 01-.011.078 1.41 1.41 0 001.903 1.591 1.83 1.83 0 00.592-.28 15.176 15.176 0 002.467-3.47 63.466 63.466 0 00-.208-6.618zm-23.946 8.699a14.272 14.272 0 01-.017-.171c-3.122-5.617-3.825-13.86-3.32-20.456.042-.57.087-1.098.129-1.591.266-3.173.428-5.088-.646-6.822-1.032-1.668-3.138-2.98-7.18-5.12-2.228-1.18-3.929-3.546-4.79-6.664a17.36 17.36 0 01.209-9.659c.983-3.074 2.79-5.55 5.226-7.157 2.846-1.879 6.443-2.545 10.69-1.982.15.02.302.045.455.072-1.772-.8-3.58-1.44-5.209-1.657-4.247-.562-7.844.104-10.69 1.982-2.436 1.608-4.243 4.083-5.226 7.157a17.359 17.359 0 00-.21 9.66c.862 3.117 2.563 5.484 4.792 6.663 4.041 2.14 6.146 3.452 7.18 5.12 1.072 1.734.911 3.65.645 6.822-.042.493-.087 1.022-.13 1.59-.61 7.979.543 18.369 5.61 23.603.178.127.378.222.59.279a1.447 1.447 0 001.81-.735c.117-.27.15-.568.094-.856a.525.525 0 01-.012-.078z" fill="#D4E1F4"/><path d="M21.686 43.704c3.631 1.922 5.618 3.13 6.401 4.395.723 1.167.591 2.737.352 5.587-.042.498-.087 1.03-.13 1.604-.355 4.63-.1 9.41.718 13.46 1.02 5.054 2.85 8.973 5.44 11.649a3.475 3.475 0 005.907-3.027c-.087-.9-1.588-17.729 5.576-26.45a2.71 2.71 0 014.157.022c7.023 8.762 5.546 25.527 5.46 26.428a3.39 3.39 0 003.383 3.999c.39 0 .778-.065 1.147-.192a3.45 3.45 0 001.378-.78c2.59-2.676 4.42-6.595 5.44-11.65.817-4.05 1.072-8.83.718-13.46-.044-.57-.088-1.1-.13-1.596-.24-2.85-.372-4.421.352-5.59.782-1.263 2.769-2.473 6.401-4.4 2.93-1.556 5.109-4.886 5.977-9.136.835-4.09.377-8.522-1.256-12.157a1.055 1.055 0 10-1.924.865c1.456 3.24 1.862 7.203 1.113 10.87-.742 3.63-2.527 6.435-4.899 7.694-8.183 4.343-8.426 5.362-7.866 12.03.041.49.085 1.016.129 1.58.926 12.112-2.27 20.072-5.566 23.477a1.833 1.833 0 01-.553.258 1.34 1.34 0 01-1.676-.677 1.354 1.354 0 01-.087-.793.87.87 0 00.013-.087 60.046 60.046 0 00-.01-10.285c-.651-7.687-2.636-13.648-5.898-17.718a4.818 4.818 0 00-7.432-.04c-3.327 4.049-5.354 10.01-6.023 17.72a59.415 59.415 0 00-.018 10.324c.003.029.008.058.013.086.051.267.021.543-.087.793a1.339 1.339 0 01-1.676.677 1.948 1.948 0 01-.548-.253c-3.3-3.41-6.496-11.369-5.57-23.481.043-.568.088-1.095.13-1.588.56-6.671.317-7.69-7.869-12.023-2.198-1.164-3.878-3.503-4.73-6.588a17.222 17.222 0 01.208-9.582c1.027-3.214 4.62-10.53 15.775-9.051 3.645.483 8.21 3.12 11.232 4.864.909.525 1.694.978 2.275 1.268 2.807 1.395 7.02 3.157 11.177 2.346a1.055 1.055 0 00-.404-2.07c-2.224.433-4.75.034-7.836-1.251a36.617 36.617 0 003.456-1.96c1.848-1.146 3.445-2.136 6.58-2.99 4.34-1.184 8.069-1.03 11.08.455a1.055 1.055 0 00.934-1.892c-3.488-1.72-7.716-1.921-12.569-.599-3.432.936-5.231 2.052-7.136 3.233a30.445 30.445 0 01-4.663 2.486 1.84 1.84 0 00-.181.09 81.647 81.647 0 01-1.658-.942c-3.165-1.828-7.949-4.59-12.01-5.13-8.834-1.171-15.586 2.754-18.062 10.501-2.373 7.424.115 15.802 5.545 18.677z" fill="url(#paint0_linear)"/><path d="M8.054 59.46a1.055 1.055 0 00.882-.474 5.653 5.653 0 015.788-2.456 1.055 1.055 0 00.775-1.917 5.653 5.653 0 01-2.456-5.79 1.055 1.055 0 00-1.918-.774 5.653 5.653 0 01-5.788 2.455 1.055 1.055 0 00-.775 1.918 5.653 5.653 0 012.455 5.788 1.054 1.054 0 001.036 1.25h.001zm2.898-8.223a7.746 7.746 0 001.358 3.203 7.748 7.748 0 00-3.2 1.358 7.745 7.745 0 00-1.36-3.202 7.746 7.746 0 003.202-1.359zm74.113-33.799a10.123 10.123 0 01-7.962-7.962 1.055 1.055 0 00-2.068 0 10.122 10.122 0 01-7.962 7.961 1.055 1.055 0 000 2.069 10.124 10.124 0 017.962 7.962 1.055 1.055 0 002.068 0 10.123 10.123 0 017.962-7.962 1.055 1.055 0 000-2.069zm-8.996 6.574a12.208 12.208 0 00-5.54-5.54 12.208 12.208 0 005.54-5.54 12.209 12.209 0 005.54 5.54 12.209 12.209 0 00-5.54 5.54zM24.64 67.515a1.055 1.055 0 00-.848-1.034 8.43 8.43 0 01-6.63-6.63 1.054 1.054 0 00-2.068 0 8.43 8.43 0 01-6.63 6.63 1.055 1.055 0 000 2.068 8.43 8.43 0 016.63 6.63 1.054 1.054 0 002.068 0 8.43 8.43 0 016.63-6.63 1.055 1.055 0 00.848-1.034zm-8.512 4.35a10.516 10.516 0 00-4.35-4.35 10.52 10.52 0 004.35-4.35 10.521 10.521 0 004.35 4.35 10.517 10.517 0 00-4.35 4.35z" fill="#8888D3"/><defs><linearGradient id="paint0_linear" x1="47.942" y1="13.928" x2="47.942" y2="81.445" gradientUnits="userSpaceOnUse"><stop stop-color="#8888D3"/><stop offset="1" stop-color="#5E60A3"/></linearGradient></defs></svg>
